X:23
T:Polly Oliver Retreat
S:Ashworth's Instructor, p. 36
M:3/4
%%MIDI program 72
%%MIDI transpose 8
L:1/8
K:D
A2|d2c2d>B|A>FD2E2|F2B,2C2|D2z2A2|B2c2(3(def)|e>cA2Bc|dBA2^G2|A2z2::
A2|B2c2(3(def)|e>cA2FA|dcBAGF|F2E2(3(ABc)|d2c2dB|A>FD2E2|F2B,2C2|D2z2:|]

